icon/cg/heart.svg

<svg viewBox="0 0 24 24" fill="none" xmlns="http://www.w3.org/2000/svg" height="1em" width="1em">
  <path fill-rule="evenodd" clip-rule="evenodd" d="M12.0122 5.57169L10.9252 4.48469C8.77734 2.33681 5.29493 2.33681 3.14705 4.48469C0.999162 6.63258 0.999162 10.115 3.14705 12.2629L11.9859 21.1017L11.9877 21.0999L12.014 21.1262L20.8528 12.2874C23.0007 10.1395 23.0007 6.65711 20.8528 4.50923C18.705 2.36134 15.2226 2.36134 13.0747 4.50923L12.0122 5.57169ZM11.9877 18.2715L16.9239 13.3352L18.3747 11.9342L18.3762 11.9356L19.4386 10.8732C20.8055 9.50635 20.8055 7.29028 19.4386 5.92344C18.0718 4.55661 15.8557 4.55661 14.4889 5.92344L12.0133 8.39904L12.006 8.3918L12.005 8.39287L9.51101 5.89891C8.14417 4.53207 5.92809 4.53207 4.56126 5.89891C3.19442 7.26574 3.19442 9.48182 4.56126 10.8487L7.10068 13.3881L7.10248 13.3863L11.9877 18.2715Z" fill="currentColor"/>
</svg>

<svg width="24" height="24" fill="none" xmlns="http://www.w3.org/2000/svg"><path fill-rule="evenodd" clip-rule="evenodd" d="m12.012 5.572-1.087-1.087a5.5 5.5 0 1 0-7.778 7.778l8.839 8.839.002-.002.026.026 8.839-8.839a5.5 5.5 0 1 0-7.778-7.778l-1.063 1.063Zm-.024 12.7 4.936-4.937 1.45-1.4h.002l1.063-1.062a3.5 3.5 0 1 0-4.95-4.95L12.013 8.4l-.007-.007h-.001L9.511 5.9a3.5 3.5 0 1 0-4.95 4.95l2.54 2.54.001-.003 4.886 4.886Z" fill="currentColor"/></svg>
